X:113
T:Hornpipe (Old Morpeth Rant?)
O:No 113 Page 52 Wm Clarke MS  Feltwell, Norfolk
N:Bar 7 half bar marked "Wrong".   Correction follows.
N:Key sig for G in MS but C more likely
I:abc2nwc
M:2/2
L:1/8
K:C
(3G/2A/2B/2|c2GF ECEG|AFAc BGBd|ecfd gedc|
Bcde fdcB|c2GF ECEG|AGAc"^*"BGBd|eagf edcB|c2c2c2:|
|: (3g/2a/2b/2|c'gec Acfa|gedc cBAG|fdfd ecec|B2G2G2cB|
AFAc fedc|BGBd gfed|eagf edcB|c2c2c2|]


